assets/membership-validation-check-icon.svg

<svg fill="none" height="13" viewBox="0 0 12 13" width="12" xmlns="http://www.w3.org/2000/svg"><path d="m4.56445 12.1006c.29395 0 .52637-.1299.69043-.3828l6.45992-10.1719c.1231-.19824.1709-.34863.1709-.50586 0-.375978-.2461-.622071-.622-.622071-.2735 0-.4239.088867-.5879.348633l-6.13869 9.782198-3.18555-4.16989c-.1709-.23926-.34179-.33496-.587888-.33496-.389649 0-.65625.2666-.65625.64257 0 .15723.068359.33496.198242.49903l3.547856 4.51855c.20507.2666.41699.3965.71093.3965z" fill="#009045"/></svg>

<svg width="12" height="13" viewBox="0 0 12 13" fill="none" xmlns="http://www.w3.org/2000/svg">
<path d="M4.56445 12.1006C4.8584 12.1006 5.09082 11.9707 5.25488 11.7178L11.7148 1.5459C11.8379 1.34766 11.8857 1.19727 11.8857 1.04004C11.8857 0.664062 11.6396 0.417969 11.2637 0.417969C10.9902 0.417969 10.8398 0.506836 10.6758 0.766602L4.53711 10.5488L1.35156 6.37891C1.18066 6.13965 1.00977 6.04395 0.763672 6.04395C0.374023 6.04395 0.107422 6.31055 0.107422 6.68652C0.107422 6.84375 0.175781 7.02148 0.305664 7.18555L3.85352 11.7041C4.05859 11.9707 4.27051 12.1006 4.56445 12.1006Z" fill="#009045"/>
</svg>
